dist/img/go-up-icon.svg

<svg width="31" height="39" viewBox="0 0 31 39" fill="none" xmlns="http://www.w3.org/2000/svg">
    <path fill-rule="evenodd" clip-rule="evenodd"
          d="M22.0582 10.2667C26.4798 12.6831 29.4788 17.3765 29.4788 22.7704C29.4788 30.6346 23.1036 37.0098 15.2394 37.0098C7.3752 37.0098 1 30.6346 0.999999 22.7704C0.999999 17.3756 4.00009 12.6815 8.4229 10.2654L8.4229 9.1367C3.42856 11.6386 -9.26929e-07 16.8041 -6.66136e-07 22.7704C-2.98239e-07 31.1868 6.82292 38.0098 15.2394 38.0098C23.6559 38.0098 30.4788 31.1868 30.4788 22.7704C30.4788 16.805 27.0513 11.6402 22.0582 9.13782L22.0582 10.2667Z"
          />
    <path class="arrow-up"
          d="M15.5938 0.646114C15.3985 0.450852 15.0819 0.450852 14.8867 0.646114L11.7047 3.8281C11.5094 4.02336 11.5094 4.33994 11.7047 4.5352C11.9 4.73046 12.2165 4.73046 12.4118 4.5352L15.2402 1.70677L18.0687 4.5352C18.2639 4.73046 18.5805 4.73046 18.7758 4.5352C18.971 4.33994 18.971 4.02336 18.7758 3.8281L15.5938 0.646114ZM15.7402 14.0645L15.7402 0.999668L14.7402 0.999668L14.7402 14.0645L15.7402 14.0645Z"
          />
</svg>

<svg width="31" height="39" fill="none" xmlns="http://www.w3.org/2000/svg"><path clip-rule="evenodd" d="M22.058 10.267a14.234 14.234 0 017.42 12.503c0 7.865-6.374 14.24-14.239 14.24C7.375 37.01 1 30.635 1 22.77c0-5.394 3-10.088 7.423-12.505V9.137C3.429 11.639 0 16.804 0 22.77c0 8.417 6.823 15.24 15.24 15.24 8.416 0 15.239-6.823 15.239-15.24 0-5.965-3.428-11.13-8.42-13.632v1.129z"/><path class="arrow-up" d="M15.594.646a.5.5 0 00-.707 0l-3.182 3.182a.5.5 0 10.707.707l2.828-2.828 2.829 2.828a.5.5 0 00.707-.707L15.594.646zm.146 13.418V1h-1v13.065h1z"/></svg>
